X:1
T:Title
%%score ( 1 2 ) { 3 | 4 }
L:1/8
Q:1/4=97
M:4/4
K:Eb
V:1 treble nm="Grand Piano, Soprano"
V:2 treble 
V:3 treble nm="Choir Pad, Follow Where Jesus Leadeth"
V:4 bass 
V:1
 [GB]2 [GB]2 [EG]>[FA] [GB]>[Ac] | [GB]4 [EG]2 [GB]>[Ac] | [GB]2 [EG]2 [EG][DF] [CE]2 | [DF]6 z2 | %4
w: By~A.~H.~Gregory * * * * *||||
 [EB]2 [EB]2 [EG]>[FA] [GB]>[Ac] | [GB]4 [EG]2 [GB]>[Ac] | [GB]2 E2 [DG]2 [DF]2 | E6 [EB]>[FB] | %8
w: ||||
 e6 z2 | B6 z2 | B6 z2 | [EG]6 [GB]>[GB] | c6 z2 | e4 z4 | B6 z2 | e8- | e4 z4 |] %17
w: |||||||||
V:2
 x8 | x8 | x8 | x8 | x8 | x8 | x8 | x8 | G>G A>A G>[Ge] [EG]>[Ac] | G>G F>A G2 [GB]>[GB] | %10
 F>G A>G F2 [FA]>[DB] | x8 | A>A A>A A>[Ac] [Ad]>[Ad] | G>G A>A [GB]2 [EB]>[FB] | %14
 G>F A>G F2 [Ad]>[Ad] | G>G A>A G4- | G4 z4 |] %17
V:3
 E2 E2 B,>B, E>E | E4 B,2 E>E | E2[K:bass] B,2 C2 G,=A, | B,6 z2 | G,2 G,2 B,>B, E>[K:treble]E | %5
 E4 B,2 E>E | E2[K:bass] B,2 B,2 A,2 | G,6 G,>A, | B,>B, C>C B,>B, B,>[K:treble]E | %9
 E>E D>F E2 E>E | D>E F>E D2[K:bass] B,>B, | B,6 E>E | E>E E>E E>E[K:bass] B,>B, | %13
 B,>B, C>[K:treble]D E2 E>E | E>D F>E D2[K:bass] B,>B, | B,>B,- B,/<[K:treble]C/-C/<C/ B,4- | %16
 B,4 z4 |] %17
V:4
 E,2 E,2 E,>E, E,>E, | E,4 E,2 E,>E, | E,2 E,2 C,2 C,2 | B,,6 z2 | E,2 E,2 E,>E, E,>E, | %5
 E,4 E,2 E,>E, | E,2 G,2 z2 B,,2 | E,6 E,>E, | E,>E, E,>E, E,>E, E,>E, | E,>E, B,,>B,, E,2 E,>E, | %10
 B,,>B,, B,,>B,, B,,2 B,,>B,, | E,6 E,>E, | A,>A, A,>A, A,>A, F,>F, | E,>E, E,>E, E,2 G,>A, | %14
 B,>B, B,>B, B,2 B,,>B,, | E,8- | E,4 z4 |] %17

